Newaita-dark/apps/16/com.github.cassidyjames.clairvoyant.svg

<svg height="16" viewBox="0 0 16 16" width="16" xmlns="http://www.w3.org/2000/svg" xmlns:xlink="http://www.w3.org/1999/xlink"><linearGradient id="a"><stop offset="0" stop-opacity=".313726"/><stop offset=".222222" stop-opacity=".27451"/><stop offset="1" stop-opacity="0"/></linearGradient><radialGradient id="b" cx="450.908936" cy="189.579361" gradientTransform="matrix(.00000009 -.0390662 -.0703192 -.00000005 22.261576 31.797665)" gradientUnits="userSpaceOnUse" r="21.166656" xlink:href="#a"/><radialGradient id="c" cx="450.908936" cy="189.579361" gradientTransform="matrix(-.00000009 .0390662 .0703192 .00000005 -6.385059 -3.763741)" gradientUnits="userSpaceOnUse" r="21.166656" xlink:href="#a"/><radialGradient id="d" cx="450.908936" cy="189.579361" gradientTransform="matrix(-.00000009 -.0390662 .0703192 -.00000005 -6.385059 31.797665)" gradientUnits="userSpaceOnUse" r="21.166656" xlink:href="#a"/><radialGradient id="e" cx="450.908936" cy="189.579361" gradientTransform="matrix(.00000009 .0390662 -.0703192 .00000005 22.261575 -3.763741)" gradientUnits="userSpaceOnUse" r="21.166656" xlink:href="#a"/><linearGradient id="f" gradientTransform="matrix(.00668003 0 0 .031253 6.232693 6.719392)" gradientUnits="userSpaceOnUse" x1="255.323059" x2="255.323044" y1="233.5" y2="254.666656"><stop offset="0" stop-opacity=".27451"/><stop offset="1" stop-opacity="0"/></linearGradient><linearGradient id="g" gradientUnits="userSpaceOnUse" x1="7.938262" x2="7.938262" y1="1.44805249998" y2="14.0169675"><stop offset="0" stop-color="#90a4ae"/><stop offset="1" stop-color="#546e7a"/></linearGradient><linearGradient id="h" gradientTransform="matrix(.031253 0 0 -.031253 0 6.719392)" gradientUnits="userSpaceOnUse" x1="254" x2="254" y1="-170" y2="105.166656"><stop offset="0" stop-color="#bdbdbd"/><stop offset="1" stop-color="#e0e0e0"/></linearGradient><linearGradient id="i" gradientUnits="userSpaceOnUse" x1="7.9382592" x2="7.9382592" y1="3.43261989607" y2="12.03240120048"><stop offset="0" stop-color="#616161"/><stop offset="1" stop-color="#424242"/></linearGradient><path d="m9.097656 14.015625h1.320313v-.660156h-1.320313zm0 0" fill="url(#b)"/><path d="m6.78125 14.015625h-1.324219v.664063h1.324219zm0 0" fill="url(#c)"/><path d="m6.78125 14.015625h-1.324219v-.660156h1.324219zm0 0" fill="url(#d)"/><path d="m9.097656 14.015625h1.320313v.664063h-1.320313zm0 0" fill="url(#e)"/><path d="m6.78125 13.851562h2.316406v.828126h-2.316406zm0 0" fill="url(#f)"/><path d="m7.9375 1.449219c3.472656 0 6.285156 2.8125 6.285156 6.285156 0 3.46875-2.8125 6.28125-6.285156 6.28125-3.46875 0-6.285156-2.8125-6.285156-6.28125 0-3.472656 2.816406-6.285156 6.285156-6.285156zm0 0" fill="url(#g)"/><path d="m7.9375 14.015625c-3.480469 0-6.285156-2.800781-6.285156-6.28125 0-.023437 0-.042969 0-.0625.035156 3.453125 2.824218 6.222656 6.285156 6.222656s6.253906-2.769531 6.285156-6.222656v.0625c0 3.480469-2.804687 6.28125-6.285156 6.28125zm0 0" fill-opacity=".196078"/><path d="m7.9375 1.449219c-3.480469 0-6.285156 2.800781-6.285156 6.285156v.058594c.035156-3.453125 2.824218-6.222657 6.285156-6.222657s6.253906 2.769532 6.285156 6.222657c0-.019531 0-.039063 0-.058594 0-3.484375-2.804687-6.285156-6.285156-6.285156zm0 0" fill="#fff" fill-opacity=".392157"/><path d="m7.9375 1.402344c-3.507812 0-6.332031 2.824218-6.332031 6.332031 0 3.503906 2.824219 6.328125 6.332031 6.328125s6.332031-2.824219 6.332031-6.328125c0-3.507813-2.824219-6.332031-6.332031-6.332031zm0 .09375c3.457031 0 6.238281 2.78125 6.238281 6.238281 0 3.453125-2.78125 6.234375-6.238281 6.234375s-6.238281-2.78125-6.238281-6.234375c0-3.457031 2.78125-6.238281 6.238281-6.238281zm0 0" fill="#212121"/><path d="m7.9375 12.03125c2.375 0 4.300781-1.925781 4.300781-4.296875 0-2.375-1.925781-4.300781-4.300781-4.300781s-4.300781 1.925781-4.300781 4.300781c0 2.371094 1.925781 4.296875 4.300781 4.296875zm0 0" fill="url(#h)"/><path d="m7.9375 3.433594c-2.382812 0-4.300781 1.917968-4.300781 4.300781 0 .054687.003906.109375.003906.164063.085937-2.304688 1.972656-4.136719 4.296875-4.136719 2.328125 0 4.210938 1.832031 4.296875 4.136719.003906-.054688.003906-.109376.003906-.164063 0-2.382813-1.917969-4.300781-4.300781-4.300781zm0 0" fill-opacity=".235294"/><path d="m3.640625 7.898438c0 .054687-.003906.109374-.003906.164062 0 2.382812 1.917969 4.300781 4.300781 4.300781s4.300781-1.917969 4.300781-4.300781c0-.054688 0-.109375-.003906-.164062-.085937 2.304687-1.96875 4.132812-4.296875 4.132812-2.324219 0-4.210938-1.828125-4.296875-4.132812zm0 0" fill="#fff" fill-opacity=".392157"/><path d="m253.975747-169.963238c75.992743 0 137.611858 61.619116 137.611858 137.486871 0 75.992743-61.619115 137.611859-137.611858 137.611859-75.992744 0-137.611859-61.619116-137.611859-137.611859 0-75.867755 61.619115-137.486871 137.611859-137.486871zm0 0" fill="none" stroke="#212121" stroke-linecap="round" stroke-width="3" transform="matrix(.031253 0 0 -.031253 0 6.719392)"/><path d="m7.277344 5.085938c-.550782 0-.992188.441406-.992188.992187v.660156c0 .347657.175782.652344.441406.828125-.265624.179688-.441406.480469-.441406.828125v.992188c0 .550781.441406.992187.992188.992187h1.324218c.546876 0 .992188-.441406.992188-.992187v-.992188c0-.347656-.175781-.648437-.445312-.828125.269531-.175781.445312-.480468.445312-.828125v-.660156c0-.550781-.445312-.992187-.992188-.992187zm.164062.660156h.992188c.277344 0 .496094.222656.496094.496094v.496093c0 .277344-.21875.5-.496094.5h-.992188c-.273437 0-.496094-.222656-.496094-.5v-.496093c0-.273438.222657-.496094.496094-.496094zm0 2.152344h.992188c.277344 0 .496094.222656.496094.496093v.828125c0 .273438-.21875.496094-.496094.496094h-.992188c-.273437 0-.496094-.222656-.496094-.496094v-.828125c0-.273437.222657-.496093.496094-.496093zm0 0" fill="url(#i)"/><path d="m7.277344 5.085938c-.550782 0-.992188.441406-.992188.992187v.164063c0-.546876.441406-.992188.992188-.992188h1.324218c.546876 0 .992188.445312.992188.992188v-.164063c0-.550781-.445312-.992187-.992188-.992187zm-.332032 1.652343v.167969c0 .273438.222657.496094.496094.496094h.992188c.277344 0 .496094-.222656.496094-.496094v-.167969c0 .277344-.21875.5-.496094.5h-.992188c-.273437 0-.496094-.222656-.496094-.5zm-.324218.910157c-.207032.183593-.335938.449218-.335938.746093v.164063c0-.34375.175782-.648438.441406-.824219-.039062-.027344-.074218-.054687-.105468-.085937zm2.636718 0c-.035156.03125-.070312.058593-.109374.085937.269531.175781.445312.480469.445312.824219v-.164063c0-.296875-.132812-.5625-.335938-.746093zm-2.3125 1.574218v.164063c0 .273437.222657.496093.496094.496093h.992188c.277344 0 .496094-.222656.496094-.496093v-.164063c0 .273438-.21875.496094-.496094.496094h-.992188c-.273437 0-.496094-.222656-.496094-.496094zm0 0" fill="#fff" fill-opacity=".313726"/><path d="m7.441406 5.746094c-.273437 0-.496094.222656-.496094.496094v.25c0-.273438.222657-.496094.496094-.496094h.992188c.277344 0 .496094.222656.496094.496094v-.25c0-.273438-.21875-.496094-.496094-.496094zm-1.15625.992187v.25c0 .273438.109375.523438.289063.703125.046875-.046875.097656-.089844.152343-.125-.265624-.175781-.441406-.480468-.441406-.828125zm3.308594 0c0 .347657-.175781.652344-.445312.828125.054687.035156.105468.078125.152343.125.179688-.179687.292969-.429687.292969-.703125zm-2.152344 1.160157c-.273437 0-.496094.222656-.496094.496093v.246094c0-.273437.222657-.496094.496094-.496094h.992188c.277344 0 .496094.222657.496094.496094v-.246094c0-.273437-.21875-.496093-.496094-.496093zm-1.15625 1.488281v.246093c0 .550782.441406.992188.992188.992188h1.324218c.546876 0 .992188-.441406.992188-.992188v-.246093c0 .550781-.445312.992187-.992188.992187h-1.324218c-.550782 0-.992188-.441406-.992188-.992187zm0 0" fill-opacity=".235294"/><path d="m880.073484 615.059407c-66.607816 0-119.988548 53.380732-119.988548 119.988548v79.8349c0 42.043232 21.257813 78.890109 53.380732 100.147922-32.122919 21.73021-53.380732 58.104691-53.380732 100.147922v119.988548c0 66.607816 53.380732 119.988548 119.988548 119.988548h160.142196c66.13542 0 119.988548-53.380732 119.988548-119.988548v-119.988548c0-42.043231-21.257814-78.417712-53.853128-100.147922 32.595314-21.257813 53.853128-58.10469 53.853128-100.147922v-79.8349c0-66.607816-53.853128-119.988548-119.988548-119.988548zm19.840626 79.8349h119.988548c33.540106 0 59.994274 26.926564 59.994274 59.994274v59.994274c0 33.540106-26.454168 60.46667-59.994274 60.46667h-119.988548c-33.06771 0-59.994274-26.926564-59.994274-60.46667v-59.994274c0-33.06771 26.926564-59.994274 59.994274-59.994274zm0 260.290118h119.988548c33.540106 0 59.994274 26.926564 59.994274 59.994274v100.147922c0 33.06771-26.454168 59.994274-59.994274 59.994274h-119.988548c-33.06771 0-59.994274-26.926564-59.994274-59.994274v-100.147922c0-33.06771 26.926564-59.994274 59.994274-59.994274zm0 0" fill="none" stroke="#212121" stroke-linecap="round" stroke-linejoin="round" stroke-width="11.338583" transform="scale(.00826902)"/></svg>

<?xml version="1.0" encoding="UTF-8"?>
<svg xmlns="http://www.w3.org/2000/svg" xmlns:xlink="http://www.w3.org/1999/xlink" width="16px" height="16px" viewBox="0 0 16 16" version="1.1">
<defs>
<radialGradient id="radial0" gradientUnits="userSpaceOnUse" cx="450.908936" cy="189.579361" fx="450.908936" fy="189.579361" r="21.166656" gradientTransform="matrix(0.0000000870852,-0.0390662,-0.0703192,-0.0000000507693,22.261576,31.797665)">
<stop offset="0" style="stop-color:rgb(0%,0%,0%);stop-opacity:0.313726;"/>
<stop offset="0.222222" style="stop-color:rgb(0%,0%,0%);stop-opacity:0.27451;"/>
<stop offset="1" style="stop-color:rgb(0%,0%,0%);stop-opacity:0;"/>
</radialGradient>
<radialGradient id="radial1" gradientUnits="userSpaceOnUse" cx="450.908936" cy="189.579361" fx="450.908936" fy="189.579361" r="21.166656" gradientTransform="matrix(-0.0000000870852,0.0390662,0.0703192,0.0000000507693,-6.385059,-3.763741)">
<stop offset="0" style="stop-color:rgb(0%,0%,0%);stop-opacity:0.313726;"/>
<stop offset="0.222222" style="stop-color:rgb(0%,0%,0%);stop-opacity:0.27451;"/>
<stop offset="1" style="stop-color:rgb(0%,0%,0%);stop-opacity:0;"/>
</radialGradient>
<radialGradient id="radial2" gradientUnits="userSpaceOnUse" cx="450.908936" cy="189.579361" fx="450.908936" fy="189.579361" r="21.166656" gradientTransform="matrix(-0.0000000870852,-0.0390662,0.0703192,-0.0000000507693,-6.385059,31.797665)">
<stop offset="0" style="stop-color:rgb(0%,0%,0%);stop-opacity:0.313726;"/>
<stop offset="0.222222" style="stop-color:rgb(0%,0%,0%);stop-opacity:0.27451;"/>
<stop offset="1" style="stop-color:rgb(0%,0%,0%);stop-opacity:0;"/>
</radialGradient>
<radialGradient id="radial3" gradientUnits="userSpaceOnUse" cx="450.908936" cy="189.579361" fx="450.908936" fy="189.579361" r="21.166656" gradientTransform="matrix(0.0000000870852,0.0390662,-0.0703192,0.0000000507693,22.261575,-3.763741)">
<stop offset="0" style="stop-color:rgb(0%,0%,0%);stop-opacity:0.313726;"/>
<stop offset="0.222222" style="stop-color:rgb(0%,0%,0%);stop-opacity:0.27451;"/>
<stop offset="1" style="stop-color:rgb(0%,0%,0%);stop-opacity:0;"/>
</radialGradient>
<linearGradient id="linear0" gradientUnits="userSpaceOnUse" x1="255.323059" y1="233.5" x2="255.323044" y2="254.666656" gradientTransform="matrix(0.00668003,0,0,0.031253,6.232693,6.719392)">
<stop offset="0" style="stop-color:rgb(0%,0%,0%);stop-opacity:0.27451;"/>
<stop offset="1" style="stop-color:rgb(0%,0%,0%);stop-opacity:0;"/>
</linearGradient>
<linearGradient id="linear1" gradientUnits="userSpaceOnUse" x1="254" y1="-168.666672" x2="254" y2="233.5" gradientTransform="matrix(0.031253,0,0,0.031253,0,6.719392)">
<stop offset="0" style="stop-color:rgb(56.470591%,64.313728%,68.235296%);stop-opacity:1;"/>
<stop offset="1" style="stop-color:rgb(32.941177%,43.137255%,47.843137%);stop-opacity:1;"/>
</linearGradient>
<linearGradient id="linear2" gradientUnits="userSpaceOnUse" x1="254" y1="-170" x2="254" y2="105.166656" gradientTransform="matrix(0.031253,0,0,-0.031253,0,6.719392)">
<stop offset="0" style="stop-color:rgb(74.117649%,74.117649%,74.117649%);stop-opacity:1;"/>
<stop offset="1" style="stop-color:rgb(87.843138%,87.843138%,87.843138%);stop-opacity:1;"/>
</linearGradient>
<linearGradient id="linear3" gradientUnits="userSpaceOnUse" x1="960" y1="415.118103" x2="960" y2="1455.118164" gradientTransform="matrix(0.00826902,0,0,0.00826902,0,0)">
<stop offset="0" style="stop-color:rgb(38.039216%,38.039216%,38.039216%);stop-opacity:1;"/>
<stop offset="1" style="stop-color:rgb(25.882354%,25.882354%,25.882354%);stop-opacity:1;"/>
</linearGradient>
</defs>
<g id="surface1">
<path style=" stroke:none;fill-rule:nonzero;fill:url(#radial0);" d="M 9.097656 14.015625 L 10.417969 14.015625 L 10.417969 13.355469 L 9.097656 13.355469 Z M 9.097656 14.015625 "/>
<path style=" stroke:none;fill-rule:nonzero;fill:url(#radial1);" d="M 6.78125 14.015625 L 5.457031 14.015625 L 5.457031 14.679688 L 6.78125 14.679688 Z M 6.78125 14.015625 "/>
<path style=" stroke:none;fill-rule:nonzero;fill:url(#radial2);" d="M 6.78125 14.015625 L 5.457031 14.015625 L 5.457031 13.355469 L 6.78125 13.355469 Z M 6.78125 14.015625 "/>
<path style=" stroke:none;fill-rule:nonzero;fill:url(#radial3);" d="M 9.097656 14.015625 L 10.417969 14.015625 L 10.417969 14.679688 L 9.097656 14.679688 Z M 9.097656 14.015625 "/>
<path style=" stroke:none;fill-rule:nonzero;fill:url(#linear0);" d="M 6.78125 13.851562 L 9.097656 13.851562 L 9.097656 14.679688 L 6.78125 14.679688 Z M 6.78125 13.851562 "/>
<path style=" stroke:none;fill-rule:nonzero;fill:url(#linear1);" d="M 7.9375 1.449219 C 11.410156 1.449219 14.222656 4.261719 14.222656 7.734375 C 14.222656 11.203125 11.410156 14.015625 7.9375 14.015625 C 4.46875 14.015625 1.652344 11.203125 1.652344 7.734375 C 1.652344 4.261719 4.46875 1.449219 7.9375 1.449219 Z M 7.9375 1.449219 "/>
<path style=" stroke:none;fill-rule:nonzero;fill:rgb(0%,0%,0%);fill-opacity:0.196078;" d="M 7.9375 14.015625 C 4.457031 14.015625 1.652344 11.214844 1.652344 7.734375 C 1.652344 7.710938 1.652344 7.691406 1.652344 7.671875 C 1.6875 11.125 4.476562 13.894531 7.9375 13.894531 C 11.398438 13.894531 14.191406 11.125 14.222656 7.671875 C 14.222656 7.691406 14.222656 7.710938 14.222656 7.734375 C 14.222656 11.214844 11.417969 14.015625 7.9375 14.015625 Z M 7.9375 14.015625 "/>
<path style=" stroke:none;fill-rule:nonzero;fill:rgb(100%,100%,100%);fill-opacity:0.392157;" d="M 7.9375 1.449219 C 4.457031 1.449219 1.652344 4.25 1.652344 7.734375 C 1.652344 7.753906 1.652344 7.773438 1.652344 7.792969 C 1.6875 4.339844 4.476562 1.570312 7.9375 1.570312 C 11.398438 1.570312 14.191406 4.339844 14.222656 7.792969 C 14.222656 7.773438 14.222656 7.753906 14.222656 7.734375 C 14.222656 4.25 11.417969 1.449219 7.9375 1.449219 Z M 7.9375 1.449219 "/>
<path style=" stroke:none;fill-rule:nonzero;fill:rgb(12.941177%,12.941177%,12.941177%);fill-opacity:1;" d="M 7.9375 1.402344 C 4.429688 1.402344 1.605469 4.226562 1.605469 7.734375 C 1.605469 11.238281 4.429688 14.0625 7.9375 14.0625 C 11.445312 14.0625 14.269531 11.238281 14.269531 7.734375 C 14.269531 4.226562 11.445312 1.402344 7.9375 1.402344 Z M 7.9375 1.496094 C 11.394531 1.496094 14.175781 4.277344 14.175781 7.734375 C 14.175781 11.1875 11.394531 13.96875 7.9375 13.96875 C 4.480469 13.96875 1.699219 11.1875 1.699219 7.734375 C 1.699219 4.277344 4.480469 1.496094 7.9375 1.496094 Z M 7.9375 1.496094 "/>
<path style=" stroke:none;fill-rule:nonzero;fill:url(#linear2);" d="M 7.9375 12.03125 C 10.3125 12.03125 12.238281 10.105469 12.238281 7.734375 C 12.238281 5.359375 10.3125 3.433594 7.9375 3.433594 C 5.5625 3.433594 3.636719 5.359375 3.636719 7.734375 C 3.636719 10.105469 5.5625 12.03125 7.9375 12.03125 Z M 7.9375 12.03125 "/>
<path style=" stroke:none;fill-rule:nonzero;fill:rgb(0%,0%,0%);fill-opacity:0.235294;" d="M 7.9375 3.433594 C 5.554688 3.433594 3.636719 5.351562 3.636719 7.734375 C 3.636719 7.789062 3.640625 7.84375 3.640625 7.898438 C 3.726562 5.59375 5.613281 3.761719 7.9375 3.761719 C 10.265625 3.761719 12.148438 5.59375 12.234375 7.898438 C 12.238281 7.84375 12.238281 7.789062 12.238281 7.734375 C 12.238281 5.351562 10.320312 3.433594 7.9375 3.433594 Z M 7.9375 3.433594 "/>
<path style=" stroke:none;fill-rule:nonzero;fill:rgb(100%,100%,100%);fill-opacity:0.392157;" d="M 3.640625 7.898438 C 3.640625 7.953125 3.636719 8.007812 3.636719 8.0625 C 3.636719 10.445312 5.554688 12.363281 7.9375 12.363281 C 10.320312 12.363281 12.238281 10.445312 12.238281 8.0625 C 12.238281 8.007812 12.238281 7.953125 12.234375 7.898438 C 12.148438 10.203125 10.265625 12.03125 7.9375 12.03125 C 5.613281 12.03125 3.726562 10.203125 3.640625 7.898438 Z M 3.640625 7.898438 "/>
<path style="fill:none;stroke-width:3;stroke-linecap:round;stroke-linejoin:miter;stroke:rgb(12.941177%,12.941177%,12.941177%);stroke-opacity:1;stroke-miterlimit:4;" d="M 253.975747 -169.963238 C 329.96849 -169.963238 391.587605 -108.344122 391.587605 -32.476367 C 391.587605 43.516376 329.96849 105.135492 253.975747 105.135492 C 177.983003 105.135492 116.363888 43.516376 116.363888 -32.476367 C 116.363888 -108.344122 177.983003 -169.963238 253.975747 -169.963238 Z M 253.975747 -169.963238 " transform="matrix(0.031253,0,0,-0.031253,0,6.719392)"/>
<path style=" stroke:none;fill-rule:nonzero;fill:url(#linear3);" d="M 7.277344 5.085938 C 6.726562 5.085938 6.285156 5.527344 6.285156 6.078125 L 6.285156 6.738281 C 6.285156 7.085938 6.460938 7.390625 6.726562 7.566406 C 6.460938 7.746094 6.285156 8.046875 6.285156 8.394531 L 6.285156 9.386719 C 6.285156 9.9375 6.726562 10.378906 7.277344 10.378906 L 8.601562 10.378906 C 9.148438 10.378906 9.59375 9.9375 9.59375 9.386719 L 9.59375 8.394531 C 9.59375 8.046875 9.417969 7.746094 9.148438 7.566406 C 9.417969 7.390625 9.59375 7.085938 9.59375 6.738281 L 9.59375 6.078125 C 9.59375 5.527344 9.148438 5.085938 8.601562 5.085938 Z M 7.441406 5.746094 L 8.433594 5.746094 C 8.710938 5.746094 8.929688 5.96875 8.929688 6.242188 L 8.929688 6.738281 C 8.929688 7.015625 8.710938 7.238281 8.433594 7.238281 L 7.441406 7.238281 C 7.167969 7.238281 6.945312 7.015625 6.945312 6.738281 L 6.945312 6.242188 C 6.945312 5.96875 7.167969 5.746094 7.441406 5.746094 Z M 7.441406 7.898438 L 8.433594 7.898438 C 8.710938 7.898438 8.929688 8.121094 8.929688 8.394531 L 8.929688 9.222656 C 8.929688 9.496094 8.710938 9.71875 8.433594 9.71875 L 7.441406 9.71875 C 7.167969 9.71875 6.945312 9.496094 6.945312 9.222656 L 6.945312 8.394531 C 6.945312 8.121094 7.167969 7.898438 7.441406 7.898438 Z M 7.441406 7.898438 "/>
<path style=" stroke:none;fill-rule:nonzero;fill:rgb(100%,100%,100%);fill-opacity:0.313726;" d="M 7.277344 5.085938 C 6.726562 5.085938 6.285156 5.527344 6.285156 6.078125 L 6.285156 6.242188 C 6.285156 5.695312 6.726562 5.25 7.277344 5.25 L 8.601562 5.25 C 9.148438 5.25 9.59375 5.695312 9.59375 6.242188 L 9.59375 6.078125 C 9.59375 5.527344 9.148438 5.085938 8.601562 5.085938 Z M 6.945312 6.738281 L 6.945312 6.90625 C 6.945312 7.179688 7.167969 7.402344 7.441406 7.402344 L 8.433594 7.402344 C 8.710938 7.402344 8.929688 7.179688 8.929688 6.90625 L 8.929688 6.738281 C 8.929688 7.015625 8.710938 7.238281 8.433594 7.238281 L 7.441406 7.238281 C 7.167969 7.238281 6.945312 7.015625 6.945312 6.738281 Z M 6.621094 7.648438 C 6.414062 7.832031 6.285156 8.097656 6.285156 8.394531 L 6.285156 8.558594 C 6.285156 8.214844 6.460938 7.910156 6.726562 7.734375 C 6.6875 7.707031 6.652344 7.679688 6.621094 7.648438 Z M 9.257812 7.648438 C 9.222656 7.679688 9.1875 7.707031 9.148438 7.734375 C 9.417969 7.910156 9.59375 8.214844 9.59375 8.558594 L 9.59375 8.394531 C 9.59375 8.097656 9.460938 7.832031 9.257812 7.648438 Z M 6.945312 9.222656 L 6.945312 9.386719 C 6.945312 9.660156 7.167969 9.882812 7.441406 9.882812 L 8.433594 9.882812 C 8.710938 9.882812 8.929688 9.660156 8.929688 9.386719 L 8.929688 9.222656 C 8.929688 9.496094 8.710938 9.71875 8.433594 9.71875 L 7.441406 9.71875 C 7.167969 9.71875 6.945312 9.496094 6.945312 9.222656 Z M 6.945312 9.222656 "/>
<path style=" stroke:none;fill-rule:nonzero;fill:rgb(0%,0%,0%);fill-opacity:0.235294;" d="M 7.441406 5.746094 C 7.167969 5.746094 6.945312 5.96875 6.945312 6.242188 L 6.945312 6.492188 C 6.945312 6.21875 7.167969 5.996094 7.441406 5.996094 L 8.433594 5.996094 C 8.710938 5.996094 8.929688 6.21875 8.929688 6.492188 L 8.929688 6.242188 C 8.929688 5.96875 8.710938 5.746094 8.433594 5.746094 Z M 6.285156 6.738281 L 6.285156 6.988281 C 6.285156 7.261719 6.394531 7.511719 6.574219 7.691406 C 6.621094 7.644531 6.671875 7.601562 6.726562 7.566406 C 6.460938 7.390625 6.285156 7.085938 6.285156 6.738281 Z M 9.59375 6.738281 C 9.59375 7.085938 9.417969 7.390625 9.148438 7.566406 C 9.203125 7.601562 9.253906 7.644531 9.300781 7.691406 C 9.480469 7.511719 9.59375 7.261719 9.59375 6.988281 Z M 7.441406 7.898438 C 7.167969 7.898438 6.945312 8.121094 6.945312 8.394531 L 6.945312 8.640625 C 6.945312 8.367188 7.167969 8.144531 7.441406 8.144531 L 8.433594 8.144531 C 8.710938 8.144531 8.929688 8.367188 8.929688 8.640625 L 8.929688 8.394531 C 8.929688 8.121094 8.710938 7.898438 8.433594 7.898438 Z M 6.285156 9.386719 L 6.285156 9.632812 C 6.285156 10.183594 6.726562 10.625 7.277344 10.625 L 8.601562 10.625 C 9.148438 10.625 9.59375 10.183594 9.59375 9.632812 L 9.59375 9.386719 C 9.59375 9.9375 9.148438 10.378906 8.601562 10.378906 L 7.277344 10.378906 C 6.726562 10.378906 6.285156 9.9375 6.285156 9.386719 Z M 6.285156 9.386719 "/>
<path style="fill:none;stroke-width:11.338583;stroke-linecap:round;stroke-linejoin:round;stroke:rgb(12.941177%,12.941177%,12.941177%);stroke-opacity:1;stroke-miterlimit:4;" d="M 880.073484 615.059407 C 813.465668 615.059407 760.084936 668.440139 760.084936 735.047955 L 760.084936 814.882855 C 760.084936 856.926087 781.342749 893.772964 813.465668 915.030777 C 781.342749 936.760987 760.084936 973.135468 760.084936 1015.178699 L 760.084936 1135.167247 C 760.084936 1201.775063 813.465668 1255.155795 880.073484 1255.155795 L 1040.21568 1255.155795 C 1106.3511 1255.155795 1160.204228 1201.775063 1160.204228 1135.167247 L 1160.204228 1015.178699 C 1160.204228 973.135468 1138.946414 936.760987 1106.3511 915.030777 C 1138.946414 893.772964 1160.204228 856.926087 1160.204228 814.882855 L 1160.204228 735.047955 C 1160.204228 668.440139 1106.3511 615.059407 1040.21568 615.059407 Z M 899.91411 694.894307 L 1019.902658 694.894307 C 1053.442764 694.894307 1079.896932 721.820871 1079.896932 754.888581 L 1079.896932 814.882855 C 1079.896932 848.422961 1053.442764 875.349525 1019.902658 875.349525 L 899.91411 875.349525 C 866.8464 875.349525 839.919836 848.422961 839.919836 814.882855 L 839.919836 754.888581 C 839.919836 721.820871 866.8464 694.894307 899.91411 694.894307 Z M 899.91411 955.184425 L 1019.902658 955.184425 C 1053.442764 955.184425 1079.896932 982.110989 1079.896932 1015.178699 L 1079.896932 1115.326621 C 1079.896932 1148.394331 1053.442764 1175.320895 1019.902658 1175.320895 L 899.91411 1175.320895 C 866.8464 1175.320895 839.919836 1148.394331 839.919836 1115.326621 L 839.919836 1015.178699 C 839.919836 982.110989 866.8464 955.184425 899.91411 955.184425 Z M 899.91411 955.184425 " transform="matrix(0.00826902,0,0,0.00826902,0,0)"/>
</g>
</svg>
